; generated by Slic3r 1.3.0 on 2019-12-16 at 12:55:16

; external perimeters extrusion width = 0.20mm (0.94mm^3/s)
; perimeters extrusion width = 0.20mm (0.94mm^3/s)
; infill extrusion width = 0.20mm (0.79mm^3/s)
; solid infill extrusion width = 0.20mm (0.94mm^3/s)
; top infill extrusion width = 0.20mm (0.94mm^3/s)

M190 S50 ; set bed temperature and wait for it to be reached
M104 S210 ; set temperature
G28 ; home all axes
G1 Z5 F5000 ; lift nozzle
G1 X0 Y0 F5000 ;

; Filament gcode

M109 S210 ; set temperature and wait for it to be reached
G21 ; set units to millimeters
G90 ; use absolute coordinates
M83 ; use relative distances for extrusion
M106 S255 ; enable fan
;LAYER:
G1 Z0.200 F2700.000 ; move to next layer (0)
G1 E-0.50000 F2400.00000 ; retract extruder 0
G1 X134.200 Y83.721 F2700.000 ; move to first infill point
G1 E0.50000 F2400.00000 ; unretract extruder 0
G1 F1500
G1 X134.200 Y88.466 E0.06198 ; infill
G1 X134.306 Y88.875 E0.00552 ; infill
G1 X134.476 Y89.407 E0.00730 ; infill
G1 X134.677 Y89.929 E0.00730 ; infill
G1 X134.828 Y90.267 E0.00484 ; infill
G1 X134.828 Y81.920 E0.10902 ; infill
G1 X135.163 Y81.252 E0.00976 ; infill
G1 X135.457 Y80.759 E0.00750 ; infill
G1 X135.457 Y91.428 E0.13935 ; infill
G1 X135.760 Y91.879 E0.00710 ; infill
G1 X136.085 Y92.309 E0.00704 ; infill
G1 X136.085 Y79.878 E0.16236 ; infill
G1 X136.459 Y79.436 E0.00756 ; infill
G1 X136.713 Y79.169 E0.00482 ; infill
G1 X136.713 Y93.018 E0.18089 ; infill
G1 X137.342 Y93.614 E0.01131 ; infill
G1 X137.342 Y78.573 E0.19645 ; infill
G1 X137.970 Y78.073 E0.01049 ; infill
G1 X137.970 Y94.114 E0.20951 ; infill
G1 X138.598 Y94.543 E0.00994 ; infill
G1 X138.598 Y77.645 E0.22070 ; infill
G1 X139.227 Y77.288 E0.00944 ; infill
G1 X139.227 Y94.899 E0.23002 ; infill
G1 X139.855 Y95.200 E0.00910 ; infill
G1 X139.855 Y76.987 E0.23789 ; infill
G1 X140.483 Y76.735 E0.00884 ; infill
G1 X140.483 Y95.451 E0.24445 ; infill
G1 X141.112 Y95.656 E0.00863 ; infill
G1 X141.112 Y76.531 E0.24980 ; infill
G1 X141.740 Y76.374 E0.00846 ; infill
G1 X141.740 Y95.813 E0.25390 ; infill
G1 X142.368 Y95.926 E0.00834 ; infill
G1 X142.368 Y76.261 E0.25685 ; infill
G1 X142.857 Y76.195 E0.00644 ; infill
G1 X142.857 Y75.709 E0.00634 ; infill
G1 X142.997 Y75.614 E0.00221 ; infill
G1 X142.997 Y96.576 E0.27379 ; infill
G1 X143.625 Y96.998 E0.00989 ; infill
G1 X143.625 Y75.185 E0.28490 ; infill
G1 X144.253 Y74.757 E0.00993 ; infill
G1 X144.253 Y97.421 E0.29601 ; infill
G1 X144.882 Y97.843 E0.00989 ; infill
G1 X144.882 Y74.329 E0.30712 ; infill
G1 X145.510 Y73.900 E0.00993 ; infill
G1 X145.510 Y98.265 E0.31823 ; infill
G1 X146.138 Y98.687 E0.00989 ; infill
G1 X146.138 Y73.472 E0.32934 ; infill
G1 X146.766 Y73.044 E0.00993 ; infill
G1 X146.766 Y99.110 E0.34045 ; infill
G1 X147.395 Y99.532 E0.00989 ; infill
G1 X147.395 Y72.615 E0.35156 ; infill
G1 X148.023 Y72.187 E0.00993 ; infill
G1 X148.023 Y99.954 E0.36267 ; infill
G1 X148.651 Y100.377 E0.00989 ; infill
G1 X148.651 Y71.759 E0.37379 ; infill
G1 X149.280 Y71.330 E0.00993 ; infill
G1 X149.280 Y100.799 E0.38490 ; infill
G1 X149.908 Y101.221 E0.00989 ; infill
G1 X149.908 Y70.902 E0.39601 ; infill
G1 X150.536 Y70.474 E0.00993 ; infill
G1 X150.536 Y101.644 E0.40712 ; infill
G1 X151.165 Y102.066 E0.00989 ; infill
G1 X151.165 Y70.045 E0.41823 ; infill
G1 X151.793 Y69.617 E0.00993 ; infill
G1 X151.793 Y102.488 E0.42934 ; infill
G1 X152.421 Y102.910 E0.00989 ; infill
G1 X152.421 Y69.189 E0.44045 ; infill
G1 X153.050 Y68.760 E0.00993 ; infill
G1 X153.050 Y103.333 E0.45156 ; infill
G1 X153.678 Y103.755 E0.00989 ; infill
G1 X153.678 Y68.332 E0.46267 ; infill
G1 X154.306 Y67.904 E0.00993 ; infill
G1 X154.306 Y104.177 E0.47378 ; infill
G1 X154.935 Y104.600 E0.00989 ; infill
G1 X154.935 Y67.476 E0.48489 ; infill
G1 X155.563 Y67.047 E0.00993 ; infill
G1 X155.563 Y105.022 E0.49600 ; infill
G1 X156.191 Y105.444 E0.00989 ; infill
G1 X156.191 Y99.763 E0.07421 ; infill
G1 X156.287 Y99.996 E0.00329 ; infill
G1 X156.410 Y100.216 E0.00329 ; infill
G1 X156.553 Y100.434 E0.00341 ; infill
G1 X156.820 Y100.718 E0.00508 ; infill
G1 X156.820 Y105.866 E0.06725 ; infill
G1 X157.448 Y106.289 E0.00989 ; infill
G1 X157.448 Y101.123 E0.06747 ; infill
G1 X157.704 Y101.216 E0.00356 ; infill
G1 X158.076 Y101.285 E0.00494 ; infill
G1 X158.076 Y106.711 E0.07087 ; infill
G1 X158.704 Y107.133 E0.00989 ; infill
G1 X158.704 Y101.280 E0.07646 ; infill
G1 X158.863 Y101.257 E0.00209 ; infill
G1 X159.086 Y101.193 E0.00303 ; infill
G1 X159.333 Y101.093 E0.00347 ; infill
G1 X159.333 Y107.556 E0.08441 ; infill
G1 X159.961 Y107.978 E0.00989 ; infill
G1 X159.961 Y101.164 E0.08900 ; infill
G1 X160.589 Y101.164 E0.00821 ; infill
G1 X160.589 Y108.400 E0.09451 ; infill
G1 X161.218 Y108.823 E0.00989 ; infill
G1 X161.218 Y101.164 E0.10003 ; infill
G1 X161.384 Y101.164 E0.00217 ; infill
G1 X161.384 Y94.027 E0.09322 ; infill
G1 X161.218 Y94.027 E0.00217 ; infill
G1 X161.218 Y63.192 E0.40274 ; infill
G1 X161.846 Y62.764 E0.00993 ; infill
G1 X161.846 Y109.245 E0.60710 ; infill
G1 X162.474 Y109.667 E0.00989 ; infill
G1 X162.474 Y99.934 E0.12712 ; infill
G1 X162.572 Y100.117 E0.00271 ; infill
G1 X162.725 Y100.328 E0.00340 ; infill
G1 X162.899 Y100.531 E0.00350 ; infill
G1 X163.103 Y100.711 E0.00355 ; infill
G1 X163.103 Y110.089 E0.12250 ; infill
G1 X163.731 Y110.512 E0.00989 ; infill
G1 X163.731 Y101.078 E0.12321 ; infill
G1 X164.056 Y101.190 E0.00449 ; infill
G1 X164.359 Y101.260 E0.00407 ; infill
G1 X164.359 Y110.934 E0.12636 ; infill
G1 X164.988 Y111.356 E0.00989 ; infill
G1 X164.988 Y101.300 E0.13134 ; infill
G1 X165.480 Y101.257 E0.00646 ; infill
G1 X165.616 Y101.224 E0.00183 ; infill
G1 X165.616 Y111.087 E0.12883 ; infill
G1 X166.244 Y110.660 E0.00992 ; infill
G1 X166.244 Y101.002 E0.12615 ; infill
G1 X166.499 Y100.862 E0.00379 ; infill
G1 X166.873 Y100.557 E0.00631 ; infill
G1 X166.873 Y110.233 E0.12639 ; infill
G1 X167.501 Y109.807 E0.00992 ; infill
G1 X167.501 Y99.506 E0.13454 ; infill
G1 X167.609 Y99.078 E0.00576 ; infill
G1 X167.654 Y98.496 E0.00763 ; infill
G1 X167.609 Y97.913 E0.00763 ; infill
G1 X167.501 Y97.485 E0.00576 ; infill
G1 X167.501 Y62.232 E0.46045 ; infill
G1 X168.129 Y62.663 E0.00996 ; infill
G1 X168.129 Y101.704 E0.50992 ; infill
G1 X168.758 Y101.704 E0.00821 ; infill
G1 X168.758 Y63.095 E0.50428 ; infill
G1 X169.386 Y63.527 E0.00996 ; infill
G1 X169.386 Y101.704 E0.49864 ; infill
G1 X170.014 Y101.704 E0.00821 ; infill
G1 X170.014 Y63.959 E0.49300 ; infill
G1 X170.642 Y64.390 E0.00996 ; infill
G1 X170.642 Y95.884 E0.41135 ; infill
G1 X171.271 Y95.884 E0.00821 ; infill
G1 X171.271 Y64.822 E0.40571 ; infill
G1 X171.899 Y65.254 E0.00996 ; infill
G1 X171.899 Y101.704 E0.47609 ; infill
G1 X172.527 Y101.704 E0.00821 ; infill
G1 X172.527 Y65.685 E0.47045 ; infill
G1 X173.156 Y66.117 E0.00996 ; infill
G1 X173.156 Y101.704 E0.46481 ; infill
G1 X173.784 Y101.704 E0.00821 ; infill
G1 X173.784 Y66.549 E0.45917 ; infill
G1 X174.412 Y66.980 E0.00996 ; infill
G1 X174.412 Y105.112 E0.49804 ; infill
G1 X175.041 Y104.685 E0.00992 ; infill
G1 X175.041 Y67.412 E0.48683 ; infill
G1 X175.669 Y67.844 E0.00996 ; infill
G1 X175.669 Y104.258 E0.47562 ; infill
G1 X176.297 Y103.831 E0.00992 ; infill
G1 X176.297 Y68.275 E0.46440 ; infill
G1 X176.926 Y68.707 E0.00996 ; infill
G1 X176.926 Y103.404 E0.45319 ; infill
G1 X177.554 Y102.978 E0.00992 ; infill
G1 X177.554 Y69.139 E0.44198 ; infill
G1 X178.182 Y69.570 E0.00996 ; infill
G1 X178.182 Y102.551 E0.43076 ; infill
G1 X178.811 Y102.124 E0.00992 ; infill
G1 X178.811 Y70.002 E0.41955 ; infill
G1 X179.439 Y70.434 E0.00996 ; infill
G1 X179.439 Y101.697 E0.40834 ; infill
G1 X180.067 Y101.270 E0.00992 ; infill
G1 X180.067 Y70.865 E0.39712 ; infill
G1 X180.696 Y71.297 E0.00996 ; infill
G1 X180.696 Y100.844 E0.38591 ; infill
G1 X181.324 Y100.417 E0.00992 ; infill
G1 X181.324 Y71.729 E0.37470 ; infill
G1 X181.952 Y72.161 E0.00996 ; infill
G1 X181.952 Y99.990 E0.36349 ; infill
G1 X182.580 Y99.563 E0.00992 ; infill
G1 X182.580 Y72.592 E0.35227 ; infill
G1 X183.209 Y73.024 E0.00996 ; infill
G1 X183.209 Y99.136 E0.34106 ; infill
G1 X183.837 Y98.709 E0.00992 ; infill
G1 X183.837 Y73.456 E0.32985 ; infill
G1 X184.465 Y73.887 E0.00996 ; infill
G1 X184.465 Y98.283 E0.31863 ; infill
G1 X185.094 Y97.856 E0.00992 ; infill
G1 X185.094 Y74.319 E0.30742 ; infill
G1 X185.722 Y74.751 E0.00996 ; infill
G1 X185.722 Y97.429 E0.29621 ; infill
G1 X186.350 Y97.002 E0.00992 ; infill
G1 X186.350 Y75.182 E0.28499 ; infill
G1 X186.979 Y75.614 E0.00996 ; infill
G1 X186.979 Y96.575 E0.27378 ; infill
G1 X187.119 Y96.480 E0.00221 ; infill
G1 X187.119 Y95.992 E0.00637 ; infill
G1 X187.607 Y95.926 E0.00644 ; infill
G1 X187.607 Y76.261 E0.25686 ; infill
G1 X188.235 Y76.374 E0.00834 ; infill
G1 X188.235 Y95.813 E0.25390 ; infill
G1 X188.864 Y95.656 E0.00846 ; infill
G1 X188.864 Y76.531 E0.24980 ; infill
G1 X189.492 Y76.735 E0.00863 ; infill
G1 X189.492 Y95.452 E0.24446 ; infill
G1 X190.120 Y95.200 E0.00884 ; infill
G1 X190.120 Y76.987 E0.23789 ; infill
G1 X190.749 Y77.288 E0.00910 ; infill
G1 X190.749 Y94.899 E0.23002 ; infill
G1 X191.377 Y94.543 E0.00943 ; infill
G1 X191.377 Y77.644 E0.22072 ; infill
G1 X192.005 Y78.073 E0.00994 ; infill
G1 X192.005 Y94.114 E0.20951 ; infill
G1 X192.634 Y93.614 E0.01049 ; infill
G1 X192.634 Y78.573 E0.19645 ; infill
G1 X193.262 Y79.169 E0.01131 ; infill
G1 X193.262 Y93.018 E0.18089 ; infill
G1 X193.516 Y92.751 E0.00482 ; infill
G1 X193.890 Y92.309 E0.00756 ; infill
G1 X193.890 Y79.878 E0.16236 ; infill
G1 X194.215 Y80.308 E0.00704 ; infill
G1 X194.518 Y80.759 E0.00710 ; infill
G1 X194.518 Y91.428 E0.13935 ; infill
G1 X194.812 Y90.935 E0.00750 ; infill
G1 X195.147 Y90.267 E0.00976 ; infill
G1 X195.147 Y81.920 E0.10902 ; infill
G1 X195.299 Y82.258 E0.00484 ; infill
G1 X195.499 Y82.780 E0.00730 ; infill
G1 X195.669 Y83.312 E0.00730 ; infill
G1 X195.775 Y83.721 E0.00552 ; infill
G1 X195.775 Y88.463 E0.06194 ; infill
G1 E-0.50000 F2400.00000 ; retract extruder 0
G1 X173.784 Y101.657 F2700.000 ; move to first infill point
G1 E0.50000 F2400.00000 ; unretract extruder 0
G1 F1500
G1 X174.014 Y101.657 E0.00300 ; infill
G1 X174.014 Y103.134 E0.01929 ; infill
G1 X173.784 Y103.134 E0.00300 ; infill
G1 X173.784 Y105.538 E0.03140 ; infill
G1 X173.156 Y105.965 E0.00992 ; infill
G1 X173.156 Y103.134 E0.03698 ; infill
G1 X172.527 Y103.134 E0.00821 ; infill
G1 X172.527 Y106.392 E0.04255 ; infill
G1 X171.899 Y106.819 E0.00992 ; infill
G1 X171.899 Y103.134 E0.04813 ; infill
G1 X171.271 Y103.134 E0.00821 ; infill
G1 X171.271 Y107.246 E0.05370 ; infill
G1 X170.642 Y107.673 E0.00992 ; infill
G1 X170.642 Y103.134 E0.05928 ; infill
G1 X170.014 Y103.134 E0.00821 ; infill
G1 X170.014 Y108.099 E0.06485 ; infill
G1 X169.386 Y108.526 E0.00992 ; infill
G1 X169.386 Y103.134 E0.07043 ; infill
G1 X168.758 Y103.134 E0.00821 ; infill
G1 X168.758 Y108.953 E0.07600 ; infill
G1 X168.129 Y109.380 E0.00992 ; infill
G1 X168.129 Y103.134 E0.08158 ; infill
G1 E-0.50000 F2400.00000 ; retract extruder 0
G1 X156.191 Y66.619 F2700.000 ; move to first infill point
G1 E0.50000 F2400.00000 ; unretract extruder 0
G1 F1500
G1 X156.191 Y97.239 E0.39994 ; infill
G1 X156.289 Y97.011 E0.00324 ; infill
G1 X156.412 Y96.800 E0.00319 ; infill
G1 X156.553 Y96.595 E0.00325 ; infill
G1 X156.820 Y96.311 E0.00509 ; infill
G1 X156.820 Y66.191 E0.39341 ; infill
G1 X157.448 Y65.762 E0.00993 ; infill
G1 X157.448 Y95.918 E0.39387 ; infill
G1 X157.789 Y95.806 E0.00469 ; infill
G1 X158.076 Y95.767 E0.00378 ; infill
G1 X158.076 Y65.334 E0.39750 ; infill
G1 X158.704 Y64.906 E0.00993 ; infill
G1 X158.704 Y95.790 E0.40339 ; infill
G1 X159.014 Y95.866 E0.00416 ; infill
G1 X159.240 Y95.952 E0.00316 ; infill
G1 X159.333 Y96.008 E0.00142 ; infill
G1 X159.333 Y64.477 E0.41183 ; infill
G1 X159.961 Y64.049 E0.00993 ; infill
G1 X159.961 Y94.074 E0.39217 ; infill
G1 X160.589 Y94.074 E0.00821 ; infill
G1 X160.589 Y63.621 E0.39776 ; infill
G1 X161.218 Y63.192 E0.00993 ; infill
G1 X162.474 Y62.336 F2700.000 ; move to first infill point
G1 F1500
G1 X162.474 Y97.108 E0.45417 ; infill
G1 X162.575 Y96.923 E0.00275 ; infill
G1 X162.727 Y96.711 E0.00340 ; infill
G1 X162.900 Y96.507 E0.00349 ; infill
G1 X163.103 Y96.332 E0.00351 ; infill
G1 X163.103 Y61.907 E0.44963 ; infill
G1 X163.731 Y61.479 E0.00993 ; infill
G1 X163.731 Y95.970 E0.45049 ; infill
G1 X164.057 Y95.863 E0.00448 ; infill
G1 X164.359 Y95.796 E0.00405 ; infill
G1 X164.359 Y61.051 E0.45382 ; infill
G1 X164.988 Y60.622 E0.00993 ; infill
G1 X164.988 Y95.758 E0.45891 ; infill
G1 X165.479 Y95.799 E0.00644 ; infill
G1 X165.616 Y95.831 E0.00184 ; infill
G1 X165.616 Y60.937 E0.45576 ; infill
G1 X166.244 Y61.368 E0.00996 ; infill
G1 X166.244 Y96.045 E0.45292 ; infill
G1 X166.497 Y96.183 E0.00376 ; infill
G1 X166.873 Y96.482 E0.00627 ; infill
G1 X166.873 Y61.800 E0.45299 ; infill
G1 X167.501 Y62.232 E0.00996 ; infill
G1 E-0.50000 F2400.00000 ; retract extruder 0
G1 X166.077 Y98.545 F2700.000 ; move to first infill point
G1 E0.50000 F2400.00000 ; unretract extruder 0
G1 F1800
G1 X166.062 Y98.197 E0.00487 ; infill
G1 X166.019 Y97.902 E0.00416 ; infill
G1 X165.909 Y97.567 E0.00493 ; infill
G1 X165.909 Y99.474 E0.02665 ; infill
G1 X165.829 Y99.640 E0.00257 ; infill
G1 X165.741 Y99.746 E0.00193 ; infill
G1 X165.741 Y97.292 E0.03428 ; infill
G1 X165.668 Y97.205 E0.00159 ; infill
G1 X165.573 Y97.134 E0.00166 ; infill
G1 X165.573 Y99.905 E0.03872 ; infill
G1 X165.405 Y100.009 E0.00276 ; infill
G1 X165.405 Y97.031 E0.04160 ; infill
G1 X165.237 Y96.968 E0.00251 ; infill
G1 X165.237 Y100.077 E0.04345 ; infill
G1 X165.069 Y100.107 E0.00238 ; infill
G1 X165.069 Y96.935 E0.04432 ; infill
G1 X164.901 Y96.925 E0.00235 ; infill
G1 X164.901 Y100.124 E0.04470 ; infill
G1 X164.733 Y100.112 E0.00235 ; infill
G1 X164.733 Y96.941 E0.04430 ; infill
G1 X164.564 Y96.971 E0.00239 ; infill
G1 X164.564 Y100.077 E0.04339 ; infill
G1 X164.396 Y100.001 E0.00257 ; infill
G1 X164.396 Y97.035 E0.04145 ; infill
G1 X164.228 Y97.139 E0.00276 ; infill
G1 X164.228 Y99.905 E0.03864 ; infill
G1 X164.060 Y99.746 E0.00323 ; infill
G1 X164.060 Y97.302 E0.03415 ; infill
G1 X163.982 Y97.398 E0.00174 ; infill
G1 X163.892 Y97.576 E0.00278 ; infill
G1 X163.892 Y99.463 E0.02636 ; infill
G1 X163.817 Y99.271 E0.00288 ; infill
G1 X163.739 Y98.840 E0.00611 ; infill
G1 X163.724 Y98.493 E0.00485 ; infill
G1 E-0.50000 F2400.00000 ; retract extruder 0
G1 X159.857 Y98.535 F2700.000 ; move to first infill point
G1 E0.50000 F2400.00000 ; unretract extruder 0
G1 F1800
G1 X159.842 Y98.187 E0.00479 ; infill
G1 X159.799 Y97.893 E0.00408 ; infill
G1 X159.692 Y97.577 E0.00459 ; infill
G1 X159.692 Y99.468 E0.02598 ; infill
G1 X159.609 Y99.640 E0.00262 ; infill
G1 X159.526 Y99.741 E0.00179 ; infill
G1 X159.526 Y97.305 E0.03346 ; infill
G1 X159.437 Y97.202 E0.00187 ; infill
G1 X159.361 Y97.146 E0.00130 ; infill
G1 X159.361 Y99.902 E0.03786 ; infill
G1 X159.196 Y100.009 E0.00270 ; infill
G1 X159.196 Y97.039 E0.04079 ; infill
G1 X159.031 Y96.975 E0.00243 ; infill
G1 X159.031 Y100.077 E0.04260 ; infill
G1 X158.866 Y100.106 E0.00230 ; infill
G1 X158.866 Y96.937 E0.04353 ; infill
G1 X158.701 Y96.924 E0.00228 ; infill
G1 X158.701 Y100.124 E0.04394 ; infill
G1 X158.535 Y100.111 E0.00228 ; infill
G1 X158.535 Y96.941 E0.04354 ; infill
G1 X158.370 Y96.970 E0.00230 ; infill
G1 X158.370 Y100.072 E0.04261 ; infill
G1 X158.205 Y99.990 E0.00253 ; infill
G1 X158.205 Y97.035 E0.04059 ; infill
G1 X158.040 Y97.139 E0.00269 ; infill
G1 X158.040 Y99.882 E0.03767 ; infill
G1 X157.875 Y99.713 E0.00325 ; infill
G1 X157.875 Y97.301 E0.03313 ; infill
G1 X157.802 Y97.389 E0.00157 ; infill
G1 X157.709 Y97.569 E0.00278 ; infill
G1 X157.709 Y99.420 E0.02543 ; infill
G1 X157.646 Y99.260 E0.00236 ; infill
G1 X157.561 Y98.830 E0.00602 ; infill
G1 X157.544 Y98.483 E0.00477 ; infill
;LAYER:
G1 Z0.400 F2700.000 ; move to next layer (1)
G1 X158.681 Y100.100 F2700.000 ; move to first infill point
G1 F1800
G1 X159.016 Y100.069 E0.00440 ; infill
G1 X159.302 Y99.943 E0.00409 ; infill
G1 X158.140 Y99.943 E0.01519 ; infill
G1 X158.046 Y99.888 E0.00143 ; infill
